docs/images/icons/x-fit.svg

<svg width="100" height="54" viewBox="0 0 100 54" fill="none" xmlns="http://www.w3.org/2000/svg">
<g id="logo_x-fit" clip-path="url(#clip0_245_2485)">
<path id="Vector" d="M3.33306 16.6745C3.63663 15.3274 6.93102 2.06376 16.7006 1.88325C25.3616 1.7189 27.2596 15.683 27.2596 15.683C27.2596 15.683 33.9434 10.564 38.65 7.50606C42.9977 4.67715 49.0321 0.538842 52.4321 0C52.4321 0 45.4394 6.19668 39.6188 11.2618C36.7732 13.7405 30.0762 20.123 28.099 22.0036C28.099 22.0036 29.6459 40.4347 17.0491 46.9385C17.0491 46.9385 20.7262 36.811 19.9528 29.5231C19.9528 29.5231 12.6566 37.0669 1.91289 54C1.91289 54 0.0756364 52.5586 0.00172403 48.5469C-0.0906669 43.428 3.49672 35.1944 18.8996 21.6211C18.8996 21.6211 17.7619 8.56758 12.0152 8.68882C6.76207 8.78581 4.03523 17.0409 4.03523 17.0409L3.33043 16.6772L3.33306 16.6745Z" fill="#2DE000"/>
<path id="Vector_2" d="M63.7961 28.203C63.6844 28.862 63.346 29.4587 62.8418 29.886C62.3376 30.3131 61.7007 30.5428 61.0455 30.5336C59.6571 30.5336 58.5404 29.3508 58.7754 27.9983C58.9118 27.3286 59.2711 26.7278 59.7921 26.2976C60.3132 25.8674 60.964 25.6344 61.6342 25.6382C61.9489 25.638 62.26 25.7073 62.5462 25.8413C62.8323 25.9752 63.0867 26.1706 63.292 26.4141C63.4972 26.6577 63.6486 26.9436 63.7356 27.2524C63.8226 27.5612 63.8432 27.8854 63.7961 28.203Z" fill="#2DE000"/>
<path id="Vector_3" d="M86.6852 15.5886C86.5404 16.2771 86.1715 16.8954 85.6384 17.3425C85.1054 17.7897 84.4398 18.0394 83.7498 18.0511C82.364 18.0511 81.4269 16.9546 81.6618 15.6021C81.8102 14.9168 82.1807 14.3025 82.7132 13.8587C83.2459 13.4147 83.9097 13.1671 84.5972 13.1558C85.9831 13.1558 86.9201 14.2523 86.6852 15.6021V15.5886Z" fill="#FEFEFE"/>
<path id="Vector_4" d="M59.7837 20.8154H54.9741L51.6428 25.2662L49.8425 20.8154H45.3364L48.5728 28.2595L42.2796 36.105H47.2635L50.8957 31.3875L52.7409 36.105H57.466L53.942 28.2433L59.7837 20.8154Z" fill="#FEFEFE"/>
<path id="Vector_5" d="M82.6517 36.105H78.6235L81.3609 20.8154H85.3891L82.6517 36.105Z" fill="#FEFEFE"/>
<path id="Vector_6" d="M75.1311 17.1321H79.0907L79.7691 13.1689H74.817C71.4302 13.1689 69.2049 15.8631 68.7297 18.5573C68.3707 20.5537 65.8578 36.102 65.8578 36.102H69.886L71.7337 24.7863H77.4831L78.1641 20.8205H72.3858C72.4913 20.19 72.56 19.767 72.5812 19.635C72.7923 18.3445 73.7188 17.1375 75.1311 17.1375V17.1321Z" fill="#FEFEFE"/>
<path id="Vector_7" d="M92.4187 24.7863H98.6348L99.2553 20.8178H93.1286C93.8312 16.895 94.5044 13.1689 94.5044 13.1689H90.4598C90.4598 13.1689 87.8493 27.8227 87.5061 29.8191C86.8198 33.82 88.7521 36.1047 93.1634 36.1047H96.7553L97.4339 32.1415H93.2419C91.7116 32.1415 91.2491 30.9776 91.5187 29.6979C91.6134 29.2372 91.9777 27.238 92.4187 24.7863Z" fill="#FEFEFE"/>
<path id="Vector_8" d="M98.992 34.7308H98.8197V35.0002H98.992C99.0839 35.0002 99.1054 34.9678 99.1054 34.9005V34.8332C99.1 34.7551 99.0705 34.7308 98.992 34.7308ZM98.9598 35.1915H98.8197V35.5067H98.6143V34.5368H98.992C99.2027 34.5368 99.3009 34.6311 99.3009 34.8062V34.9113C99.3045 34.9595 99.2938 35.0077 99.2705 35.0495C99.2464 35.0915 99.2116 35.125 99.1688 35.1457L99.4143 35.5013H99.1741L98.9491 35.1861L98.9598 35.1915ZM98.9598 35.8192C99.1598 35.8192 99.3518 35.738 99.4938 35.5935C99.6357 35.4491 99.7152 35.253 99.7152 35.0487C99.7152 34.8443 99.6357 34.6483 99.4938 34.5039C99.3518 34.3593 99.1598 34.2782 98.9598 34.2782C98.7598 34.2782 98.5679 34.3593 98.4259 34.5039C98.2848 34.6483 98.2054 34.8443 98.2054 35.0487C98.2054 35.253 98.2848 35.4491 98.4259 35.5935C98.5679 35.738 98.7598 35.8192 98.9598 35.8192ZM98.9598 33.9926C99.1652 33.9915 99.3661 34.0526 99.5366 34.1681C99.7072 34.2836 99.8411 34.4483 99.9197 34.6414C99.9991 34.8344 100.021 35.0471 99.9804 35.2524C99.9411 35.4577 99.8429 35.6464 99.6982 35.7946C99.5527 35.9426 99.3688 36.0436 99.1679 36.0845C98.9661 36.1253 98.7581 36.1043 98.5688 36.0242C98.3795 35.944 98.2179 35.8082 98.1036 35.634C97.9902 35.4599 97.9304 35.2552 97.9304 35.046C97.925 34.9074 97.9464 34.7691 97.9955 34.6397C98.0447 34.5103 98.1188 34.3925 98.2143 34.2936C98.3098 34.1948 98.4241 34.1171 98.55 34.0653C98.6759 34.0135 98.8107 33.9887 98.9464 33.9926H98.9598Z" fill="#FEFEFE"/>
<path id="Vector_9" d="M42.4565 42.0296L41.6651 42.027L41.776 41.3877L42.4874 41.393C42.6043 41.3912 42.7022 41.3631 42.7813 41.3087C42.862 41.2526 42.9248 41.1807 42.9695 41.093C43.0159 41.0035 43.0469 40.9044 43.0623 40.7956C43.0726 40.715 43.0735 40.629 43.0649 40.5379C43.0563 40.4449 43.0288 40.366 42.9824 40.301C42.9377 40.2344 42.8655 40.1976 42.7659 40.1906L42.2194 40.1853L41.678 43.3767H40.9433L41.5904 39.5459L42.7994 39.5486C43.0279 39.5555 43.2204 39.6152 43.3768 39.7274C43.5349 39.838 43.6501 39.9862 43.7222 40.1721C43.7962 40.3581 43.8237 40.5642 43.8047 40.7904C43.7824 41.043 43.7102 41.2623 43.5882 41.4482C43.4679 41.6324 43.3106 41.7762 43.1164 41.8797C42.9222 41.9814 42.7022 42.0314 42.4565 42.0296Z" fill="white"/>
<path id="Vector_10" d="M45.1922 39.5459L46.3265 39.5486C46.5516 39.5555 46.7407 39.6056 46.8937 39.6985C47.0483 39.7897 47.1626 39.9196 47.2365 40.088C47.3121 40.2546 47.3404 40.4527 47.3215 40.6825C47.3061 40.8738 47.2657 41.0412 47.2003 41.1851C47.1368 41.3272 47.0474 41.4516 46.9323 41.5587C46.8171 41.664 46.6762 41.756 46.5095 41.835L46.2595 41.9718H45.2747L45.383 41.3324L46.0069 41.3377C46.122 41.3359 46.2199 41.3087 46.3007 41.2561C46.3815 41.2035 46.4451 41.1324 46.4915 41.043C46.5396 40.9536 46.5705 40.8544 46.5843 40.7457C46.5946 40.6632 46.5954 40.5799 46.5869 40.4958C46.58 40.4115 46.5542 40.3405 46.5095 40.2826C46.4648 40.2248 46.3936 40.1932 46.2955 40.1879L45.8238 40.1853L45.2825 43.3767H44.5452L45.1922 39.5459ZM46.213 43.3767L45.8341 41.6692L46.5765 41.6666L46.9993 43.3346V43.3767H46.213Z" fill="white"/>
<path id="Vector_11" d="M50.2661 42.74L50.1553 43.3767H48.5724L48.6781 42.74H50.2661ZM49.4515 39.5459L48.8019 43.3767H48.0646L48.7116 39.5459H49.4515ZM50.3331 41.0982L50.2274 41.7165H48.8534L48.9565 41.0982H50.3331ZM50.8023 39.5459L50.6914 40.1853H49.1112L49.222 39.5459H50.8023Z" fill="white"/>
<path id="Vector_12" d="M52.2594 39.5459H52.86L53.0869 42.3112L54.2444 39.5459H54.8863L53.1746 43.3767H52.6719L52.2594 39.5459ZM51.9139 39.5459H52.5327L52.1769 42.3664L52.0016 43.3767H51.267L51.9139 39.5459ZM54.5898 39.5459H55.2111L54.5614 43.3767H53.8242L54.0097 42.298L54.5898 39.5459Z" fill="white"/>
<path id="Vector_13" d="M57.2508 39.5459L56.5986 43.3767H55.8638L56.5161 39.5459H57.2508Z" fill="white"/>
<path id="Vector_14" d="M60.1902 39.5459H60.9248L60.4866 42.1744C60.4522 42.4322 60.3766 42.6567 60.2597 42.8479C60.1447 43.0374 59.9908 43.1829 59.7983 43.2847C59.6058 43.3864 59.379 43.4355 59.1178 43.432C58.8703 43.4267 58.6649 43.3715 58.5016 43.2662C58.3384 43.1592 58.2215 43.0128 58.1511 42.8268C58.0823 42.6392 58.0617 42.4226 58.0892 42.177L58.5274 39.5459H59.2596L58.829 42.1797C58.817 42.2849 58.8153 42.384 58.8239 42.4769C58.8325 42.5681 58.8634 42.6427 58.9167 42.7006C58.9699 42.7567 59.0576 42.7874 59.1797 42.7927C59.3085 42.798 59.4116 42.7742 59.4889 42.7216C59.5681 42.669 59.6273 42.5954 59.6669 42.5006C59.7081 42.4041 59.7381 42.2971 59.7571 42.1797L60.1902 39.5459Z" fill="white"/>
<path id="Vector_15" d="M62.5108 39.5459H63.1115L63.3383 42.3112L64.4958 39.5459H65.1377L63.426 43.3767H62.9233L62.5108 39.5459ZM62.1655 39.5459H62.7841L62.4283 42.3664L62.253 43.3767H61.5184L62.1655 39.5459ZM64.8413 39.5459H65.4625L64.8129 43.3767H64.0756L64.2612 42.298L64.8413 39.5459Z" fill="white"/>
<path id="Vector_16" d="M68.9697 43.3767H68.2891L68.4025 42.74L69.0057 42.7427C69.2085 42.7444 69.3701 42.7023 69.4904 42.6163C69.6123 42.5287 69.7035 42.4111 69.7636 42.2638C69.8238 42.1147 69.8676 41.9463 69.8951 41.7586L69.9776 41.1588C69.9913 41.0483 70.0008 40.9368 70.0059 40.8246C70.0128 40.7124 70.0042 40.6089 69.9802 40.5141C69.9561 40.4194 69.908 40.3431 69.8358 40.2852C69.7654 40.2256 69.6605 40.1932 69.5213 40.1879L68.8175 40.1853L68.9284 39.5459L69.5522 39.5486C69.7791 39.5538 69.9715 39.6012 70.1296 39.6906C70.2878 39.7801 70.4141 39.9002 70.5086 40.0511C70.6048 40.2019 70.6693 40.373 70.702 40.5642C70.7346 40.7553 70.738 40.9562 70.7122 41.1666L70.6246 41.7613C70.5903 41.9875 70.5292 42.1998 70.4416 42.398C70.3556 42.5945 70.2431 42.7664 70.1038 42.9137C69.9664 43.0592 69.8031 43.1733 69.6141 43.2557C69.4268 43.3381 69.212 43.3785 68.9697 43.3767ZM69.3666 39.5459L68.717 43.3767H67.9797L68.6268 39.5459H69.3666Z" fill="white"/>
<path id="Vector_17" d="M73.845 39.5459H74.5796L74.1414 42.1744C74.1071 42.4322 74.0314 42.6567 73.9146 42.8479C73.7995 43.0374 73.6456 43.1829 73.4531 43.2847C73.2606 43.3864 73.0338 43.4355 72.7726 43.432C72.5251 43.4267 72.3197 43.3715 72.1565 43.2662C71.9932 43.1592 71.8763 43.0128 71.8059 42.8268C71.7371 42.6392 71.7165 42.4226 71.744 42.177L72.1822 39.5459H72.9144L72.4838 42.1797C72.4719 42.2849 72.4701 42.384 72.4788 42.4769C72.4873 42.5681 72.5182 42.6427 72.5715 42.7006C72.6248 42.7567 72.7124 42.7874 72.8345 42.7927C72.9633 42.798 73.0664 42.7742 73.1438 42.7216C73.2229 42.669 73.2821 42.5954 73.3217 42.5006C73.363 42.4041 73.393 42.2971 73.4119 42.1797L73.845 39.5459Z" fill="white"/>
<path id="Vector_18" d="M76.8926 42.3482C76.903 42.2693 76.9004 42.2008 76.8849 42.1429C76.8712 42.0851 76.8454 42.0342 76.8076 41.9904C76.7714 41.9448 76.7268 41.9044 76.6735 41.8693C76.6203 41.8325 76.5601 41.7983 76.4931 41.7667C76.3693 41.7054 76.2542 41.6378 76.1476 41.5641C76.0411 41.4904 75.9465 41.4072 75.864 41.3142C75.7833 41.2212 75.7223 41.1151 75.6811 40.9958C75.6398 40.8747 75.6243 40.7388 75.6347 40.588C75.6467 40.4161 75.6897 40.2618 75.7635 40.125C75.8374 39.9882 75.9337 39.8723 76.0523 39.7776C76.1708 39.6812 76.304 39.6093 76.4518 39.5619C76.5997 39.5128 76.7543 39.49 76.9158 39.4935C77.1427 39.4987 77.3317 39.5549 77.483 39.6619C77.6359 39.7671 77.7494 39.9083 77.8232 40.0854C77.8989 40.2609 77.9332 40.4582 77.9264 40.6775L77.1917 40.6749C77.1968 40.5906 77.1917 40.5056 77.1762 40.4196C77.1624 40.3337 77.1298 40.2635 77.0782 40.2091C77.0284 40.153 76.9519 40.1241 76.8489 40.1223C76.7577 40.1223 76.6778 40.1433 76.609 40.1854C76.5404 40.2258 76.4845 40.281 76.4415 40.3512C76.3986 40.4213 76.3711 40.5003 76.359 40.588C76.3505 40.6564 76.3573 40.7178 76.3797 40.7721C76.4037 40.8266 76.4364 40.8756 76.4776 40.9195C76.5206 40.9616 76.5687 41.0002 76.622 41.0353C76.6753 41.0704 76.7285 41.0993 76.7818 41.1221C76.9107 41.187 77.0293 41.2572 77.1375 41.3326C77.2475 41.4063 77.3404 41.4913 77.4159 41.5878C77.4933 41.6825 77.5491 41.7921 77.5835 41.9167C77.6196 42.0412 77.6325 42.1833 77.6222 42.3429C77.6084 42.5201 77.5664 42.6762 77.4958 42.8113C77.4272 42.9463 77.336 43.0612 77.2226 43.1559C77.1092 43.2489 76.9794 43.3191 76.8333 43.3664C76.6873 43.4137 76.5309 43.4357 76.3642 43.4322C76.1855 43.4269 76.0256 43.3927 75.8847 43.3296C75.7438 43.2647 75.6252 43.1761 75.529 43.0638C75.4344 42.9498 75.3639 42.8165 75.3176 42.6639C75.2712 42.5096 75.2531 42.3438 75.2634 42.1666L75.9981 42.1693C75.993 42.2517 75.9939 42.3315 76.0007 42.4087C76.0076 42.4858 76.0265 42.5534 76.0574 42.6113C76.0883 42.6692 76.1331 42.7157 76.1914 42.7507C76.2499 42.7858 76.3273 42.8034 76.4235 42.8034C76.5146 42.8034 76.5928 42.7841 76.6581 42.7455C76.7233 42.7052 76.7758 42.6507 76.8153 42.5823C76.8548 42.5139 76.8806 42.4359 76.8926 42.3482Z" fill="white"/>
<path id="Vector_19" d="M81.0333 41.0982L80.9224 41.735H79.4247L79.5329 41.0982H81.0333ZM80.0099 39.5459L79.3602 43.3767H78.6229L79.27 39.5459H80.0099ZM81.8272 39.5459L81.1751 43.3767H80.4455L81.0977 39.5459H81.8272Z" fill="white"/>
<path id="Vector_20" d="M84.3516 40.2668L83.0498 43.3767H82.2506L84.0397 39.5459H84.5424L84.3516 40.2668ZM84.4469 43.3767L84.1892 40.2037L84.2304 39.5459H84.7073L85.2049 43.3767H84.4469ZM84.7125 41.9481L84.6017 42.5874H82.9519L83.0627 41.9481H84.7125Z" fill="white"/>
<path id="Vector_21" d="M89.4464 39.5459L88.7939 43.3767H88.0747L87.4147 40.8246L86.9817 43.3767H86.2444L86.8914 39.5459H87.6132L88.2783 42.1007L88.7114 39.5459H89.4464Z" fill="white"/>
<path id="Vector_22" d="M91.6098 41.706H90.8313L90.9268 41.1483L91.5295 41.1535C91.6313 41.1518 91.7205 41.1316 91.7973 41.093C91.875 41.0527 91.9366 40.9956 91.983 40.922C92.0295 40.8483 92.0598 40.7597 92.0732 40.6562C92.0857 40.5668 92.0857 40.4887 92.0732 40.422C92.0634 40.3536 92.033 40.2993 91.983 40.259C91.9348 40.2168 91.8643 40.1932 91.7696 40.1879L91.3438 40.1853L90.8027 43.3767H90.0652L90.7125 39.5459L91.8 39.5486C91.958 39.5521 92.1027 39.5758 92.233 39.6196C92.3643 39.6617 92.475 39.7257 92.5661 39.8117C92.6589 39.8958 92.7286 40.002 92.775 40.13C92.8214 40.2563 92.8384 40.4045 92.8259 40.5747C92.8125 40.7694 92.7607 40.9333 92.6714 41.0667C92.5839 41.1982 92.4679 41.3008 92.3232 41.3745C92.1795 41.4482 92.0152 41.4903 91.8313 41.5008L91.6098 41.706ZM91.308 43.3767H90.3286L90.7223 42.7427L91.3438 42.7453C91.4455 42.7418 91.5321 42.7172 91.6045 42.6716C91.6786 42.6261 91.7366 42.5646 91.7795 42.4875C91.8241 42.4102 91.8536 42.3208 91.867 42.2191C91.8777 42.1455 91.8804 42.0708 91.875 41.9954C91.8697 41.9183 91.8482 41.8534 91.8107 41.8008C91.7732 41.7464 91.7072 41.7157 91.6143 41.7087L90.95 41.706L91.05 41.1483L91.7955 41.1509L91.9214 41.3692C92.0848 41.3745 92.217 41.4157 92.3188 41.4929C92.4214 41.5701 92.4955 41.6727 92.5402 41.8008C92.5848 41.927 92.6009 42.0699 92.5893 42.2296C92.5732 42.4787 92.5089 42.6892 92.3955 42.8611C92.2839 43.0312 92.1348 43.161 91.9473 43.2505C91.7598 43.3381 91.5464 43.3803 91.308 43.3767Z" fill="white"/>
<path id="Vector_23" d="M95.8303 42.74L95.7196 43.3767H94.1366L94.2419 42.74H95.8303ZM95.0151 39.5459L94.366 43.3767H93.6285L94.2759 39.5459H95.0151ZM95.8973 41.0982L95.791 41.7165H94.4178L94.5205 41.0982H95.8973ZM96.366 39.5459L96.2553 40.1853H94.675L94.7857 39.5459H96.366Z" fill="white"/>
</g>
<defs>
<clipPath id="clip0_245_2485">
<rect width="100" height="54" fill="white"/>
</clipPath>
</defs>
</svg>

<svg width="100" height="54" fill="none" xmlns="http://www.w3.org/2000/svg"><g clip-path="url(#a)"><path d="M3.333 16.674c.304-1.347 3.598-14.61 13.368-14.79 8.66-.165 10.559 13.799 10.559 13.799s6.683-5.119 11.39-8.177C42.998 4.677 49.032.54 52.432 0c0 0-6.993 6.197-12.813 11.262-2.846 2.479-9.543 8.861-11.52 10.742 0 0 1.547 18.43-11.05 24.934 0 0 3.677-10.127 2.904-17.415 0 0-7.296 7.544-18.04 24.477 0 0-1.837-1.441-1.911-5.453C-.091 43.428 3.497 35.194 18.9 21.62c0 0-1.138-13.053-6.885-12.932-5.253.097-7.98 8.352-7.98 8.352l-.705-.364.003-.003Zm60.463 11.529a2.823 2.823 0 0 1-.954 1.683 2.72 2.72 0 0 1-1.797.648c-1.388 0-2.505-1.183-2.27-2.536.137-.67.496-1.27 1.017-1.7a2.867 2.867 0 0 1 1.842-.66 2.163 2.163 0 0 1 1.658.776 2.259 2.259 0 0 1 .504 1.789Z" fill="#2DE000"/><path d="M86.685 15.589a3.128 3.128 0 0 1-1.047 1.754 3.017 3.017 0 0 1-1.888.708c-1.386 0-2.323-1.096-2.088-2.449a3.13 3.13 0 0 1 1.051-1.743 3.02 3.02 0 0 1 1.884-.703c1.386 0 2.323 1.096 2.088 2.446v-.013Zm-26.901 5.226h-4.81l-3.331 4.451-1.8-4.45h-4.507l3.237 7.444-6.293 7.845h4.983l3.633-4.717 1.845 4.717h4.725l-3.524-7.862 5.842-7.428Zm22.868 15.29h-4.028l2.737-15.29h4.028l-2.737 15.29Zm-7.521-18.973h3.96l.678-3.963h-4.952c-3.387 0-5.612 2.694-6.087 5.388-.36 1.997-2.872 17.545-2.872 17.545h4.028l1.848-11.316h5.75l.68-3.966h-5.778c.105-.63.174-1.053.195-1.185.211-1.29 1.138-2.498 2.55-2.498v-.005Zm17.288 7.654h6.216l.62-3.968H93.13c.702-3.923 1.375-7.65 1.375-7.65H90.46s-2.61 14.655-2.954 16.651c-.686 4.001 1.246 6.286 5.657 6.286h3.592l.679-3.963h-4.192c-1.53 0-1.993-1.164-1.723-2.444.094-.46.459-2.46.9-4.912Zm6.573 9.944h-.172V35h.172c.092 0 .113-.032.113-.1v-.067c-.005-.078-.035-.102-.113-.102Zm-.032.462h-.14v.315h-.206v-.97h.378c.21 0 .309.094.309.27v.104a.247.247 0 0 1-.03.139.236.236 0 0 1-.102.096l.245.355h-.24l-.225-.315.01.005Zm0 .627c.2 0 .392-.081.534-.226a.777.777 0 0 0 0-1.09.748.748 0 0 0-1.068 0 .78.78 0 0 0 0 1.09.749.749 0 0 0 .534.226Zm0-1.826c.205-.002.406.06.577.175a1.064 1.064 0 0 1 .444 1.084c-.04.206-.138.394-.283.543a1.017 1.017 0 0 1-1.13.23 1.05 1.05 0 0 1-.464-.391 1.077 1.077 0 0 1-.174-.588 1.032 1.032 0 0 1 .284-.752.992.992 0 0 1 .732-.301h.014Z" fill="#FEFEFE"/><path d="m42.456 42.03-.79-.003.11-.64.711.006a.521.521 0 0 0 .482-.3.922.922 0 0 0 .093-.297c.01-.081.012-.167.003-.258a.475.475 0 0 0-.083-.237c-.044-.067-.117-.103-.216-.11l-.547-.006-.541 3.192h-.735l.647-3.831 1.21.003c.228.007.42.066.577.178.158.111.273.26.345.445.074.186.102.392.083.618a1.403 1.403 0 0 1-.217.658c-.12.184-.277.328-.472.432a1.379 1.379 0 0 1-.66.15Zm2.736-2.484 1.135.003c.225.007.414.057.567.15a.825.825 0 0 1 .343.389c.075.167.103.365.084.594a1.5 1.5 0 0 1-.12.503 1.142 1.142 0 0 1-.269.374 1.7 1.7 0 0 1-.422.276l-.25.137h-.985l.108-.64.624.006a.543.543 0 0 0 .294-.082.553.553 0 0 0 .19-.213.847.847 0 0 0 .093-.297 1.11 1.11 0 0 0 .003-.25.393.393 0 0 0-.078-.213c-.044-.058-.115-.09-.214-.095l-.471-.003-.541 3.192h-.738l.647-3.831Zm1.021 3.83-.379-1.707.742-.002.423 1.668v.042h-.786Zm4.053-.636-.11.637h-1.584l.106-.637h1.588Zm-.814-3.194-.65 3.83h-.737l.647-3.83h.74Zm.881 1.552-.106.619h-1.374l.103-.619h1.377Zm.47-1.552-.112.64h-1.58l.111-.64h1.58Zm1.457 0h.6l.227 2.765 1.157-2.765h.642l-1.711 3.83h-.503l-.413-3.83Zm-.346 0h.619l-.356 2.82-.175 1.01h-.735l.647-3.83Zm2.676 0h.621l-.65 3.83h-.737l.186-1.078.58-2.752Zm2.66 0-.651 3.83h-.735l.652-3.83h.735Zm2.94 0h.735l-.438 2.628a1.71 1.71 0 0 1-.227.674c-.115.19-.27.335-.462.437-.192.101-.419.15-.68.147a1.164 1.164 0 0 1-.616-.166.887.887 0 0 1-.35-.44 1.416 1.416 0 0 1-.063-.649l.438-2.631h.733l-.431 2.634a1.447 1.447 0 0 0-.005.297c.009.091.04.166.093.224.053.056.14.086.263.092a.503.503 0 0 0 .309-.071.479.479 0 0 0 .178-.221c.041-.097.071-.204.09-.321l.433-2.634Zm2.32 0h.602l.226 2.765 1.158-2.765h.642l-1.712 3.83h-.503l-.412-3.83Zm-.344 0h.618l-.356 2.82-.175 1.01h-.735l.648-3.83Zm2.675 0h.622l-.65 3.83h-.737l.185-1.078.58-2.752Zm4.129 3.831h-.68l.112-.637.604.003c.203.001.364-.04.484-.127a.792.792 0 0 0 .274-.352 2.2 2.2 0 0 0 .131-.505l.083-.6c.013-.11.023-.222.028-.334a1.009 1.009 0 0 0-.026-.31.416.416 0 0 0-.144-.23.508.508 0 0 0-.315-.097l-.704-.003.111-.64.624.004c.227.005.42.052.578.142.158.09.284.21.379.36.096.15.16.322.193.513s.036.392.01.603l-.087.594a2.492 2.492 0 0 1-.183.637 1.784 1.784 0 0 1-.338.516 1.478 1.478 0 0 1-1.134.463Zm.397-3.831-.65 3.83h-.737l.647-3.83h.74Zm4.478 0h.735l-.439 2.628a1.71 1.71 0 0 1-.226.674c-.116.19-.27.335-.462.437a1.41 1.41 0 0 1-.68.147 1.163 1.163 0 0 1-.617-.166.887.887 0 0 1-.35-.44 1.416 1.416 0 0 1-.062-.649l.438-2.631h.732l-.43 2.634a1.447 1.447 0 0 0-.005.297.37.37 0 0 0 .093.224c.053.056.14.086.263.092a.503.503 0 0 0 .309-.071.48.48 0 0 0 .178-.221c.041-.097.071-.204.09-.321l.433-2.634Zm3.048 2.802a.53.53 0 0 0-.008-.205.355.355 0 0 0-.077-.153.569.569 0 0 0-.135-.12 1.266 1.266 0 0 0-.18-.103 2.76 2.76 0 0 1-.345-.203 1.575 1.575 0 0 1-.284-.25.958.958 0 0 1-.23-.726 1.121 1.121 0 0 1 .418-.81 1.356 1.356 0 0 1 .864-.285 1 1 0 0 1 .567.169.942.942 0 0 1 .34.423c.076.176.11.373.103.593l-.734-.003c.005-.084 0-.17-.016-.255a.386.386 0 0 0-.098-.21c-.05-.057-.126-.086-.23-.088a.45.45 0 0 0-.239.063.48.48 0 0 0-.167.166.607.607 0 0 0-.083.237.36.36 0 0 0 .02.184.52.52 0 0 0 .099.148.961.961 0 0 0 .304.202c.129.065.247.135.356.21.11.074.202.16.278.256a.885.885 0 0 1 .168.329c.036.124.048.266.038.426a1.203 1.203 0 0 1-.126.468 1.083 1.083 0 0 1-.663.555c-.146.048-.302.07-.469.066a1.254 1.254 0 0 1-.48-.102 1.027 1.027 0 0 1-.355-.266 1.134 1.134 0 0 1-.211-.4 1.428 1.428 0 0 1-.055-.497l.735.002a1.6 1.6 0 0 0 .003.24.526.526 0 0 0 .056.202.36.36 0 0 0 .134.14.448.448 0 0 0 .233.052c.09 0 .169-.019.234-.057a.457.457 0 0 0 .157-.164.635.635 0 0 0 .078-.234Zm4.14-1.25-.11.637h-1.498l.108-.637h1.5Zm-1.023-1.552-.65 3.83h-.737l.647-3.83h.74Zm1.817 0-.652 3.83h-.73l.653-3.83h.73Zm2.525.721-1.302 3.11h-.8l1.79-3.831h.502l-.19.72Zm.095 3.11-.258-3.173.041-.658h.477l.498 3.83h-.758Zm.266-1.429-.111.64h-1.65l.11-.64h1.65Zm4.733-2.402-.652 3.83h-.72l-.66-2.551-.432 2.552h-.738l.647-3.831h.722l.665 2.555.433-2.555h.735Zm2.164 2.16h-.779l.096-.558.602.005a.612.612 0 0 0 .268-.06.473.473 0 0 0 .186-.171.648.648 0 0 0 .09-.266.732.732 0 0 0 0-.234.246.246 0 0 0-.09-.163.345.345 0 0 0-.213-.071l-.426-.003-.541 3.192h-.738l.648-3.831 1.087.003c.158.003.303.027.433.07a.858.858 0 0 1 .333.193.78.78 0 0 1 .209.318c.046.126.063.274.05.445a.991.991 0 0 1-.154.492.902.902 0 0 1-.348.307 1.22 1.22 0 0 1-.492.127l-.221.205Zm-.302 1.67h-.98l.394-.633.622.002a.493.493 0 0 0 .436-.258.72.72 0 0 0 .087-.268c.01-.074.013-.148.008-.224a.372.372 0 0 0-.064-.194c-.038-.055-.104-.085-.197-.092l-.664-.003.1-.558.746.003.125.218a.677.677 0 0 1 .398.124.64.64 0 0 1 .221.308c.045.126.06.269.05.429-.017.249-.081.46-.195.631-.111.17-.26.3-.448.39-.187.087-.4.13-.639.126Zm4.522-.636-.11.637h-1.583l.105-.637h1.588Zm-.815-3.194-.649 3.83h-.737l.647-3.83h.74Zm.882 1.552-.106.619h-1.373l.102-.619h1.377Zm.469-1.552-.11.64h-1.581l.11-.64h1.581Z" fill="#fff"/></g><defs><clipPath id="a"><path fill="#fff" d="M0 0h100v54H0z"/></clipPath></defs></svg>
